X:10
T:O.P.
B:Preston's Twenty four COUNTRY DANCES for the Year 1801
L:1/8
M:6/8
O:England
Z:Richard Robinson 
%%Dancenotes:The 1st Cu; set & half right & left (illegible) down the middle & La Pousette
%%Page:1
%%TUNEURL: http://www.leeds.ac.uk/music/Info/RRTuneBk/gettune/00001041.html
%%ID:00001041
K:Bb
B3 F3 | B3 F3 | Bdf fed | cdB ABc | B3 F3 | B3 F3 | Bdf ecA | B2d B3 ::
f2f feB | g2g gab | fgf fed |cdc cde | f2f fed | g2g gab | agf cde | fge dec !D.C.! |]
%%newpage
%%Page:2
